Assets/Fantasy Adventure Environment/PostProcessingAssets/FAE_LUT_v2.cube
#Created by: Adobe Photoshop Export Color Lookup Plugin
TITLE "Colorgrading v2.psd"
#LUT size
LUT_3D_SIZE 5
#data domain
DOMAIN_MIN 0.0 0.0 0.0
DOMAIN_MAX 1.0 1.0 1.0
#LUT data points
0.000000 0.000000 0.000000
0.064268 0.000402 0.002566
0.454670 0.000000 0.015096
0.873259 0.000000 0.028995
0.873259 0.000000 0.028995
0.001537 0.064470 0.000000
0.065274 0.063947 0.001049
0.479035 0.046912 0.000000
0.894912 0.033103 0.000000
0.894912 0.033103 0.000000
0.013155 0.396210 0.000000
0.076362 0.407928 0.000000
0.605778 0.497475 0.000000
1.000000 0.503798 0.000000
1.000000 0.503798 0.000000
0.025711 0.774365 0.000000
0.089608 0.806881 0.000000
0.676287 0.939801 0.000000
1.000000 0.943115 0.000000
1.000000 0.943115 0.000000
0.025711 0.774365 0.000000
0.089608 0.806880 0.000000
0.676287 0.939801 0.000000
1.000000 0.943115 0.000000
1.000000 0.943115 0.000000
0.000000 0.002335 0.064268
0.062135 0.000604 0.064872
0.461383 0.000000 0.078136
0.879308 0.000000 0.092013
0.879308 0.000000 0.092013
0.000000 0.065476 0.063905
0.064470 0.065933 0.066122
0.486364 0.062817 0.076880
0.901822 0.062817 0.090675
0.901822 0.062817 0.090675
0.000000 0.404533 0.049788
0.074574 0.416897 0.062817
0.614833 0.512845 0.062817
1.000000 0.520115 0.062817
1.000000 0.520115 0.062817
0.000000 0.784250 0.079442
0.062817 0.817571 0.073179
0.674684 0.954845 0.062817
1.000000 0.960244 0.062817
1.000000 0.960244 0.062817
0.000000 0.784250 0.079442
0.062817 0.817571 0.073179
0.674684 0.954845 0.062817
1.000000 0.960244 0.062817
1.000000 0.960244 0.062817
0.000000 0.013272 0.399715
0.049408 0.000000 0.403842
0.474643 0.000000 0.452802
0.896030 0.000000 0.476289
0.896030 0.000000 0.476289
0.000000 0.076537 0.413214
0.062817 0.074608 0.417927
0.501941 0.062817 0.468426
0.921264 0.062817 0.492685
0.921264 0.062817 0.492685
0.000000 0.456468 0.495908
0.062817 0.467396 0.503366
0.607100 0.585271 0.542758
1.000000 0.593234 0.546421
1.000000 0.593234 0.546421
0.000000 0.816876 0.521723
0.062817 0.849807 0.535735
0.628472 0.998294 0.595221
1.000000 0.986575 0.595659
1.000000 0.986575 0.595659
0.000000 0.816876 0.521723
0.062817 0.849807 0.535735
0.628472 0.998294 0.595221
1.000000 0.986575 0.595659
1.000000 0.986575 0.595659
0.000000 0.026384 0.794629
0.036205 0.000000 0.801483
0.488826 0.000000 0.856356
0.943587 0.000000 0.905565
0.943587 0.000000 0.905565
0.000000 0.096489 0.814155
0.062817 0.101705 0.822015
0.516729 0.100854 0.879457
0.971805 0.096026 0.925597
0.971805 0.096026 0.925597
0.000000 0.483814 0.885978
0.062817 0.496741 0.895953
0.593341 0.619420 0.958884
1.000000 0.627231 0.981983
1.000000 0.627231 0.981983
0.000000 0.858410 0.913558
0.062817 0.888717 0.927596
0.594490 0.999771 0.963395
1.000000 0.999538 0.986084
1.000000 0.999538 0.986084
0.000000 0.858410 0.913558
0.062817 0.888717 0.927596
0.594490 0.999771 0.963395
1.000000 0.999538 0.986084
1.000000 0.999538 0.986084
0.000000 0.026384 0.794629
0.036205 0.000000 0.801483
0.488826 0.000000 0.856356
0.943587 0.000000 0.905565
0.943587 0.000000 0.905565
0.000000 0.096489 0.814155
0.062817 0.101705 0.822015
0.516729 0.100854 0.879457
0.971805 0.096026 0.925597
0.971805 0.096026 0.925597
0.000000 0.483815 0.885978
0.062817 0.496741 0.895953
0.593341 0.619420 0.958884
1.000000 0.627231 0.981983
1.000000 0.627231 0.981983
0.000000 0.858410 0.913558
0.062817 0.888717 0.927596
0.594490 0.999771 0.963395
1.000000 0.999538 0.986084
1.000000 0.999538 0.986084
0.000000 0.858410 0.913558
0.062817 0.888717 0.927596
0.594490 0.999771 0.963395
1.000000 0.999538 0.986084
1.000000 0.999538 0.986084
