Assets/Fantasy Adventure Environment/PostProcessingAssets/FAE_LUT_v2.cube
#Created by: Adobe Photoshop Export Color Lookup Plugin
TITLE "Colorgrading v2.psd"
#LUT size
LUT_3D_SIZE 33
#data domain
DOMAIN_MIN 0.0 0.0 0.0
DOMAIN_MAX 1.0 1.0 1.0
#LUT data points
0.000000 0.000000 0.000000
0.000000 0.000000 0.000000
0.000000 0.000000 0.000000
0.000000 0.000000 0.000000
0.003272 0.000000 0.000165
0.010187 0.000000 0.000514
0.019407 0.000042 0.000908
0.040672 0.000213 0.001694
0.064268 0.000402 0.002566
0.088954 0.000428 0.003064
0.115605 0.000312 0.003261
0.147392 0.000188 0.003463
0.187335 0.000049 0.003677
0.237963 0.000000 0.004863
0.299197 0.000000 0.007280
0.374818 0.000000 0.012377
0.454670 0.000000 0.015096
0.534858 0.000000 0.017759
0.608536 0.000000 0.020205
0.675271 0.000000 0.022421
0.738837 0.000000 0.024532
0.800288 0.000000 0.026572
0.860314 0.000000 0.028565
0.873259 0.000000 0.028995
0.873259 0.000000 0.028995
0.873259 0.000000 0.028995
0.873259 0.000000 0.028995
0.873259 0.000000 0.028995
0.873259 0.000000 0.028995
0.873259 0.000000 0.028995
0.873259 0.000000 0.028995
0.873259 0.000000 0.028995
0.873259 0.000000 0.028995
0.000000 0.000000 0.000000
0.000000 0.000000 0.000000
0.000000 0.000000 0.000000
0.000000 0.000000 0.000000
0.003272 0.000000 0.000165
0.010187 0.000000 0.000514
0.019407 0.000042 0.000908
0.040672 0.000213 0.001694
0.064268 0.000402 0.002566
0.088954 0.000428 0.003064
0.115605 0.000312 0.003261
0.147392 0.000188 0.003463
0.187335 0.000049 0.003677
0.237963 0.000000 0.004863
0.299197 0.000000 0.007280
0.374818 0.000000 0.012377
0.454670 0.000000 0.015096
0.534858 0.000000 0.017759
0.608536 0.000000 0.020205
0.675271 0.000000 0.022421
0.738837 0.000000 0.024532
0.800288 0.000000 0.026572
0.860314 0.000000 0.028565
0.873259 0.000000 0.028995
0.873259 0.000000 0.028995
0.873259 0.000000 0.028995
0.873259 0.000000 0.028995
0.873259 0.000000 0.028995
0.873259 0.000000 0.028995
0.873259 0.000000 0.028995
0.873259 0.000000 0.028995
0.873259 0.000000 0.028995
0.873259 0.000000 0.028995
0.000000 0.000000 0.000000
0.000000 0.000000 0.000000
0.000000 0.000000 0.000000
0.000000 0.000000 0.000000
0.003272 0.000000 0.000165
0.010187 0.000000 0.000514
0.019407 0.000042 0.000908
0.040672 0.000213 0.001694
0.064268 0.000402 0.002566
0.088954 0.000428 0.003064
0.115605 0.000312 0.003261
0.147392 0.000188 0.003463
0.187335 0.000049 0.003677
0.237963 0.000000 0.004863
0.299197 0.000000 0.007280
0.374818 0.000000 0.012377
0.454670 0.000000 0.015096
0.534858 0.000000 0.017759
0.608536 0.000000 0.020205
0.675271 0.000000 0.022421
0.738837 0.000000 0.024532
0.800288 0.000000 0.026572
0.860314 0.000000 0.028565
0.873259 0.000000 0.028995
0.873259 0.000000 0.028995
0.873259 0.000000 0.028995
0.873259 0.000000 0.028995
0.873259 0.000000 0.028995
0.873259 0.000000 0.028995
0.873259 0.000000 0.028995
0.873259 0.000000 0.028995
0.873259 0.000000 0.028995
0.873259 0.000000 0.028995
0.000000 0.000000 0.000000
0.000000 0.000000 0.000000
0.000000 0.000000 0.000000
0.000000 0.000000 0.000000
0.003272 0.000000 0.000165
0.010187 0.000000 0.000514
0.019407 0.000042 0.000908
0.040672 0.000213 0.001694
0.064268 0.000402 0.002566
0.088954 0.000428 0.003064
0.115605 0.000312 0.003261
0.147392 0.000188 0.003463
0.187335 0.000049 0.003677
0.237963 0.000000 0.004863
0.299197 0.000000 0.007280
0.374818 0.000000 0.012377
0.454670 0.000000 0.015096
0.534858 0.000000 0.017759
0.608536 0.000000 0.020205
0.675271 0.000000 0.022421
0.738837 0.000000 0.024532
0.800288 0.000000 0.026572
0.860314 0.000000 0.028565
0.873259 0.000000 0.028995
0.873259 0.000000 0.028995
0.873259 0.000000 0.028995
0.873259 0.000000 0.028995
0.873259 0.000000 0.028995
0.873259 0.000000 0.028995
0.873259 0.000000 0.028995
0.873259 0.000000 0.028995
0.873259 0.000000 0.028995
0.873259 0.000000 0.028995
0.000109 0.003272 0.000000
0.000109 0.003272 0.000000
0.000109 0.003272 0.000000
0.000109 0.003272 0.000000
0.003272 0.003165 0.000056
0.010187 0.002939 0.000176
0.019407 0.002678 0.000265
0.040672 0.002146 0.000351
0.064268 0.001555 0.000445
0.089124 0.001059 0.000484
0.115775 0.000632 0.000369
0.147785 0.000228 0.000189
0.187730 0.000049 0.000362
0.238753 0.000000 0.001561
0.300147 0.000000 0.004064
0.375833 0.000000 0.009196
0.455855 0.000000 0.011921
0.536098 0.000000 0.014585
0.609752 0.000000 0.017030
0.676343 0.000000 0.019241
0.739852 0.000000 0.021350
0.801247 0.000000 0.023389
0.861273 0.000000 0.025382
0.874218 0.000000 0.025811
0.874218 0.000000 0.025811
0.874218 0.000000 0.025811
0.874218 0.000000 0.025811
0.874218 0.000000 0.025811
0.874218 0.000000 0.025811
0.874218 0.000000 0.025811
0.874218 0.000000 0.025811
0.874218 0.000000 0.025811
0.874218 0.000000 0.025811
0.000338 0.010187 0.000000
0.000338 0.010187 0.000000
0.000338 0.010187 0.000000
0.000338 0.010187 0.000000
0.003608 0.010187 0.000056
0.010187 0.009855 0.000176
0.019407 0.009594 0.000265
0.040672 0.009061 0.000351
0.064268 0.008470 0.000445
0.089136 0.007974 0.000488
0.116132 0.007539 0.000488
0.148143 0.007135 0.000308
0.188564 0.006742 0.000049
0.239951 0.005434 0.000000
0.301816 0.002916 0.000000
0.377979 0.000000 0.002471
0.458358 0.000000 0.005207
0.538722 0.000000 0.007876
0.612375 0.000000 0.010321
0.678749 0.000000 0.012525
0.741998 0.000000 0.014625
0.803293 0.000000 0.016660
0.863336 0.000000 0.018654
0.876244 0.000000 0.019082
0.876244 0.000000 0.019082
0.876244 0.000000 0.019082
0.876244 0.000000 0.019082
0.876244 0.000000 0.019082
0.876244 0.000000 0.019082
0.876244 0.000000 0.019082
0.876244 0.000000 0.019082
0.876245 0.000000 0.019082
0.876245 0.000000 0.019082
0.000582 0.019428 0.000000
0.000582 0.019428 0.000000
0.000582 0.019428 0.000000
0.000582 0.019428 0.000000
0.003893 0.019449 0.000099
0.010804 0.019449 0.000218
0.019513 0.018960 0.000328
0.040693 0.018346 0.000414
0.064290 0.017755 0.000509
0.089431 0.017312 0.000530
0.116428 0.016877 0.000530
0.149044 0.016581 0.000397
0.189545 0.016205 0.000118
0.241675 0.015002 0.000000
0.304503 0.012094 0.000000
0.380919 0.006573 0.000000
0.461743 0.003705 0.000000
0.542320 0.001030 0.000000
0.615841 0.000000 0.001411
0.682084 0.000000 0.003610
0.745102 0.000000 0.005703
0.806360 0.000000 0.007737
0.866402 0.000000 0.009731
0.879242 0.000000 0.010157
0.879242 0.000000 0.010157
0.879242 0.000000 0.010157
0.879242 0.000000 0.010157
0.879242 0.000000 0.010157
0.879242 0.000000 0.010157
0.879242 0.000000 0.010157
0.879242 0.000000 0.010157
0.879242 0.000000 0.010157
0.879242 0.000000 0.010157
0.001035 0.040778 0.000000
0.001035 0.040778 0.000000
0.001035 0.040778 0.000000
0.001035 0.040778 0.000000
0.004560 0.040835 0.000319
0.011425 0.040885 0.000389
0.020686 0.040948 0.000499
0.041204 0.040284 0.000670
0.064375 0.039282 0.000765
0.090029 0.038939 0.000747
0.117623 0.038620 0.000701
0.150902 0.038511 0.000533
0.192362 0.038403 0.000204
0.246718 0.037466 0.000000
0.309979 0.034222 0.000000
0.387920 0.027520 0.000000
0.469940 0.024186 0.000000
0.550863 0.021499 0.000000
0.624271 0.019061 0.000000
0.689771 0.016887 0.000000
0.752621 0.014800 0.000000
0.813793 0.012769 0.000000
0.873830 0.010775 0.000000
0.886670 0.010349 0.000000
0.886670 0.010349 0.000000
0.886670 0.010349 0.000000
0.886670 0.010349 0.000000
0.886670 0.010349 0.000000
0.886670 0.010349 0.000000
0.886670 0.010349 0.000000
0.886670 0.010349 0.000000
0.886670 0.010349 0.000000
0.886670 0.010349 0.000000
0.001537 0.064470 0.000000
0.001537 0.064470 0.000000
0.001537 0.064470 0.000000
0.001537 0.064470 0.000000
0.005338 0.064526 0.000604
0.012138 0.064645 0.000604
0.021375 0.064734 0.000689
0.042813 0.064990 0.000859
0.065274 0.063947 0.001049
0.090124 0.062826 0.001031
0.118621 0.062683 0.000916
0.152229 0.062638 0.000723
0.195383 0.063006 0.000304
0.249894 0.062104 0.000093
0.315575 0.059148 0.000000
0.395689 0.050764 0.000000
0.479035 0.046912 0.000000
0.560343 0.044212 0.000000
0.633650 0.041778 0.000000
0.698582 0.039622 0.000000
0.760964 0.037551 0.000000
0.822039 0.035523 0.000000
0.882011 0.033532 0.000000
0.894912 0.033103 0.000000
0.894912 0.033103 0.000000
0.894912 0.033103 0.000000
0.894912 0.033103 0.000000
0.894912 0.033103 0.000000
0.894912 0.033103 0.000000
0.894912 0.033103 0.000000
0.894912 0.033103 0.000000
0.894912 0.033103 0.000000
0.894912 0.033103 0.000000
0.001908 0.088654 0.000000
0.001908 0.088654 0.000000
0.001908 0.088654 0.000000
0.001908 0.088654 0.000000
0.006126 0.088710 0.001035
0.012926 0.088829 0.001035
0.022004 0.089151 0.001056
0.043219 0.089762 0.001187
0.067008 0.090046 0.001377
0.091325 0.088832 0.001402
0.119329 0.088213 0.001287
0.154840 0.089176 0.000827
0.198103 0.089618 0.000390
0.255065 0.089859 0.000136
0.322704 0.087688 0.000000
0.404115 0.078969 0.000000
0.489283 0.071611 0.000000
0.571473 0.066092 0.000000
0.644611 0.063663 0.000000
0.709175 0.061519 0.000000
0.771375 0.059454 0.000000
0.832495 0.057425 0.000000
0.892488 0.055433 0.000000
0.905433 0.055003 0.000000
0.905433 0.055003 0.000000
0.905433 0.055003 0.000000
0.905433 0.055003 0.000000
0.905433 0.055003 0.000000
0.905433 0.055003 0.000000
0.905433 0.055003 0.000000
0.905433 0.055003 0.000000
0.905433 0.055003 0.000000
0.905433 0.055003 0.000000
0.002182 0.114267 0.000000
0.002182 0.114267 0.000000
0.002182 0.114267 0.000000
0.002182 0.114267 0.000000
0.006958 0.114323 0.001612
0.013758 0.114442 0.001612
0.022835 0.114764 0.001633
0.043790 0.115788 0.001718
0.067185 0.116697 0.001838
0.093996 0.117976 0.001864
0.120598 0.116222 0.001748
0.156108 0.117184 0.001288
0.202140 0.119480 0.000390
0.260393 0.120444 0.000136
0.329856 0.119292 0.000000
0.413689 0.112453 0.000000
0.501632 0.098775 0.000000
0.584622 0.088154 0.000000
0.657537 0.085733 0.000000
0.721752 0.083601 0.000000
0.783947 0.081535 0.000000
0.845280 0.079499 0.000000
0.905412 0.077502 0.000000
0.918358 0.077073 0.000000
0.918358 0.077073 0.000000
0.918358 0.077073 0.000000
0.918358 0.077073 0.000000
0.918358 0.077073 0.000000
0.918358 0.077073 0.000000
0.918358 0.077073 0.000000
0.918358 0.077073 0.000000
0.918358 0.077073 0.000000
0.918358 0.077073 0.000000
0.002527 0.143368 0.000000
0.002527 0.143368 0.000000
0.002527 0.143368 0.000000
0.002527 0.143368 0.000000
0.007905 0.143481 0.002233
0.014705 0.143600 0.002233
0.023747 0.144111 0.002254
0.044642 0.145449 0.002339
0.067894 0.146586 0.002434
0.094284 0.149483 0.002249
0.124818 0.151675 0.002133
0.158818 0.150212 0.001505
0.205323 0.152824 0.000528
0.266533 0.155350 0.000136
0.338841 0.156316 0.000000
0.424399 0.150939 0.000000
0.514429 0.137712 0.000000
0.598948 0.123967 0.000000
0.672402 0.118174 0.000000
0.736422 0.115241 0.000000
0.798553 0.114242 0.000000
0.859898 0.115004 0.000000
0.920167 0.113003 0.000000
0.933118 0.112573 0.000000
0.933118 0.112573 0.000000
0.933118 0.112573 0.000000
0.933118 0.112573 0.000000
0.933118 0.112573 0.000000
0.933118 0.112573 0.000000
0.933118 0.112573 0.000000
0.933118 0.112573 0.000000
0.933118 0.112573 0.000000
0.933118 0.112573 0.000000
0.002984 0.178144 0.000000
0.002984 0.178144 0.000000
0.002984 0.178144 0.000000
0.002984 0.178144 0.000000
0.009037 0.178257 0.002931
0.015841 0.178496 0.002931
0.024883 0.179026 0.002952
0.045692 0.180819 0.003038
0.068793 0.182759 0.003132
0.095168 0.185756 0.002933
0.125336 0.190485 0.002472
0.164385 0.194679 0.001785
0.210210 0.193856 0.000388
0.273096 0.197114 0.000049
0.348196 0.199299 0.000000
0.437253 0.197715 0.000000
0.529649 0.191251 0.000000
0.615564 0.178856 0.000000
0.690275 0.168135 0.000000
0.754527 0.161564 0.000000
0.816426 0.163225 0.000000
0.877672 0.170244 0.000000
0.937903 0.168972 0.000000
0.950851 0.168542 0.000000
0.950851 0.168542 0.000000
0.950851 0.168542 0.000000
0.950851 0.168542 0.000000
0.950851 0.168542 0.000000
0.950850 0.168542 0.000000
0.950850 0.168542 0.000000
0.950850 0.168542 0.000000
0.950850 0.168542 0.000000
0.950850 0.168542 0.000000
0.004287 0.221450 0.000000
0.004287 0.221450 0.000000
0.004287 0.221450 0.000000
0.004287 0.221450 0.000000
0.010474 0.221676 0.003066
0.017281 0.222018 0.003066
0.026333 0.222766 0.003023
0.047173 0.225242 0.002853
0.070265 0.227247 0.002942
0.093056 0.232144 0.002440
0.120450 0.238069 0.001739
0.163674 0.244398 0.001410
0.220205 0.251540 0.000485
0.282272 0.250372 0.000000
0.360004 0.254039 0.000000
0.451994 0.255006 0.000000
0.546977 0.252335 0.000000
0.634506 0.244376 0.000000
0.710174 0.235301 0.000000
0.774495 0.229871 0.000000
0.836208 0.232080 0.000000
0.897440 0.240139 0.000000
0.957515 0.239795 0.000000
0.970459 0.239365 0.000000
0.970459 0.239365 0.000000
0.970459 0.239365 0.000000
0.970459 0.239365 0.000000
0.970459 0.239365 0.000000
0.970459 0.239365 0.000000
0.970459 0.239365 0.000000
0.970459 0.239365 0.000000
0.970459 0.239365 0.000000
0.970459 0.239365 0.000000
0.006602 0.272639 0.000000
0.006602 0.272639 0.000000
0.006602 0.272639 0.000000
0.006602 0.272639 0.000000
0.012195 0.272904 0.002450
0.019007 0.273381 0.002450
0.028069 0.274477 0.002450
0.048914 0.277142 0.002317
0.072040 0.279889 0.002128
0.094615 0.285730 0.001857
0.118093 0.293342 0.000819
0.156724 0.302817 0.000188
0.220002 0.311623 0.000049
0.297397 0.321712 0.000000
0.372691 0.319180 0.000000
0.468206 0.322772 0.000000
0.566273 0.323555 0.000000
0.655677 0.319952 0.000000
0.732112 0.315179 0.000000
0.796587 0.312588 0.000000
0.858040 0.315555 0.000000
0.919093 0.322588 0.000000
0.976432 0.322161 0.000000
0.989383 0.321731 0.000000
0.989383 0.321731 0.000000
0.989383 0.321731 0.000000
0.989383 0.321731 0.000000
0.989383 0.321731 0.000000
0.989383 0.321731 0.000000
0.989383 0.321731 0.000000
0.989383 0.321731 0.000000
0.989383 0.321731 0.000000
0.989383 0.321731 0.000000
0.010985 0.332730 0.000000
0.010985 0.332730 0.000000
0.010985 0.332730 0.000000
0.010985 0.332730 0.000000
0.014270 0.333012 0.000063
0.021086 0.333608 0.000063
0.030150 0.334767 0.000063
0.051013 0.338097 0.000063
0.074164 0.341792 0.000063
0.096630 0.348318 0.000052
0.119439 0.357660 0.000052
0.157450 0.368657 0.000005
0.218517 0.382489 0.000005
0.300273 0.395778 0.000000
0.396210 0.408754 0.000000
0.484717 0.403800 0.000000
0.586537 0.408032 0.000000
0.678426 0.407560 0.000000
0.755985 0.404915 0.000000
0.820662 0.403048 0.000000
0.882112 0.405914 0.000000
0.942455 0.411920 0.000000
0.993328 0.411544 0.000000
0.999728 0.411332 0.000000
0.999728 0.411332 0.000000
0.999728 0.411332 0.000000
0.999728 0.411332 0.000000
0.999728 0.411332 0.000000
0.999728 0.411332 0.000000
0.999728 0.411332 0.000000
0.999728 0.411332 0.000000
0.999728 0.411332 0.000000
0.999728 0.411332 0.000000
0.013155 0.396210 0.000000
0.013155 0.396210 0.000000
0.013155 0.396210 0.000000
0.013155 0.396210 0.000000
0.016384 0.396605 0.000000
0.023208 0.397440 0.000000
0.032282 0.398922 0.000000
0.053176 0.403190 0.000000
0.076362 0.407928 0.000000
0.098866 0.415610 0.000000
0.121732 0.426690 0.000000
0.155708 0.440197 0.000000
0.206730 0.458489 0.000000
0.298099 0.475088 0.000000
0.407408 0.491418 0.000000
0.506143 0.496056 0.000000
0.605778 0.497475 0.000000
0.700414 0.499641 0.000000
0.779417 0.498440 0.000000
0.844581 0.496849 0.000000
0.905721 0.499397 0.000000
0.965292 0.503893 0.000000
0.998523 0.503847 0.000000
1.000000 0.503798 0.000000
1.000000 0.503798 0.000000
1.000000 0.503798 0.000000
1.000000 0.503798 0.000000
1.000000 0.503798 0.000000
1.000000 0.503798 0.000000
1.000000 0.503798 0.000000
1.000000 0.503798 0.000000
1.000000 0.503798 0.000000
1.000000 0.503798 0.000000
0.015281 0.460227 0.000000
0.015281 0.460227 0.000000
0.015281 0.460227 0.000000
0.015281 0.460227 0.000000
0.018515 0.460791 0.000000
0.025351 0.461983 0.000000
0.034438 0.463860 0.000000
0.055358 0.468897 0.000000
0.078572 0.474487 0.000000
0.101117 0.483410 0.000000
0.124030 0.495874 0.000000
0.153264 0.511556 0.000000
0.192375 0.532780 0.000000
0.290019 0.553029 0.000000
0.414941 0.573020 0.000000
0.529652 0.591509 0.000000
0.620046 0.585315 0.000000
0.717700 0.590752 0.000000
0.798752 0.591732 0.000000
0.864780 0.590770 0.000000
0.925691 0.592152 0.000000
0.984185 0.594130 0.000000
1.000000 0.594285 0.000000
1.000000 0.594285 0.000000
1.000000 0.594285 0.000000
1.000000 0.594285 0.000000
1.000000 0.594285 0.000000
1.000000 0.594285 0.000000
1.000000 0.594285 0.000000
1.000000 0.594285 0.000000
1.000000 0.594285 0.000000
1.000000 0.594285 0.000000
1.000000 0.594285 0.000000
0.017252 0.519580 0.000000
0.017252 0.519580 0.000000
0.017252 0.519580 0.000000
0.017252 0.519580 0.000000
0.020491 0.520300 0.000000
0.027330 0.521612 0.000000
0.036434 0.523968 0.000000
0.057380 0.529805 0.000000
0.080622 0.536247 0.000000
0.103199 0.546119 0.000000
0.126134 0.559268 0.000000
0.151557 0.576334 0.000000
0.182347 0.599241 0.000000
0.283714 0.621831 0.000000
0.420447 0.644343 0.000000
0.538730 0.665032 0.000000
0.651856 0.682102 0.000000
0.729017 0.668563 0.000000
0.811920 0.671687 0.000000
0.878811 0.671738 0.000000
0.939599 0.672267 0.000000
0.991486 0.672979 0.000000
1.000000 0.673050 0.000000
1.000000 0.673050 0.000000
1.000000 0.673050 0.000000
1.000000 0.673050 0.000000
1.000000 0.673050 0.000000
1.000000 0.673050 0.000000
1.000000 0.673050 0.000000
1.000000 0.673050 0.000000
1.000000 0.673050 0.000000
1.000000 0.673050 0.000000
1.000000 0.673050 0.000000
0.019070 0.574357 0.000000
0.019070 0.574357 0.000000
0.019070 0.574357 0.000000
0.019070 0.574357 0.000000
0.022319 0.575372 0.000000
0.029180 0.577307 0.000000
0.038299 0.580147 0.000000
0.059295 0.587478 0.000000
0.082563 0.594684 0.000000
0.105159 0.605159 0.000000
0.128107 0.618675 0.000000
0.155433 0.635887 0.000000
0.185664 0.659251 0.000000
0.285503 0.682159 0.000000
0.425693 0.705335 0.000000
0.545084 0.727291 0.000000
0.658852 0.745579 0.000000
0.757595 0.755519 0.000000
0.818266 0.737550 0.000000
0.886162 0.738466 0.000000
0.945306 0.739899 0.000000
0.992702 0.742430 0.000000
1.000000 0.742709 0.000000
1.000000 0.742709 0.000000
1.000000 0.742709 0.000000
1.000000 0.742709 0.000000
1.000000 0.742709 0.000000
1.000000 0.742709 0.000000
1.000000 0.742709 0.000000
1.000000 0.742709 0.000000
1.000000 0.742709 0.000000
1.000000 0.742709 0.000000
1.000000 0.742709 0.000000
0.021001 0.632497 0.000000
0.021001 0.632497 0.000000
0.021001 0.632497 0.000000
0.021001 0.632497 0.000000
0.024257 0.633738 0.000000
0.031141 0.636361 0.000000
0.040284 0.639913 0.000000
0.061320 0.648451 0.000000
0.084662 0.657925 0.000000
0.107286 0.669208 0.000000
0.130240 0.682933 0.000000
0.161926 0.699962 0.000000
0.207074 0.722171 0.000000
0.306792 0.743979 0.000000
0.437558 0.765924 0.000000
0.553626 0.787452 0.000000
0.665165 0.805527 0.000000
0.765300 0.818046 0.000000
0.825736 0.801991 0.000000
0.890231 0.800291 0.000000
0.945815 0.804597 0.000000
0.992702 0.806775 0.000000
1.000000 0.806983 0.000000
1.000000 0.806983 0.000000
1.000000 0.806983 0.000000
1.000000 0.806983 0.000000
1.000000 0.806983 0.000000
1.000000 0.806983 0.000000
1.000000 0.806983 0.000000
1.000000 0.806983 0.000000
1.000000 0.806983 0.000000
1.000000 0.806983 0.000000
1.000000 0.806983 0.000000
0.023246 0.700103 0.000000
0.023246 0.700103 0.000000
0.023246 0.700103 0.000000
0.023246 0.700103 0.000000
0.026521 0.701908 0.000000
0.033441 0.705650 0.000000
0.042617 0.710180 0.000000
0.063721 0.720767 0.000000
0.087125 0.732078 0.000000
0.109771 0.744064 0.000000
0.132719 0.757584 0.000000
0.177902 0.773029 0.000000
0.253593 0.791884 0.000000
0.346373 0.811080 0.000000
0.458614 0.830745 0.000000
0.567102 0.850134 0.000000
0.672774 0.866753 0.000000
0.770169 0.878730 0.000000
0.853615 0.886680 0.000000
0.891758 0.862251 0.000000
0.945939 0.867687 0.000000
0.992702 0.869529 0.000000
1.000000 0.869722 0.000000
1.000000 0.869722 0.000000
1.000000 0.869722 0.000000
1.000000 0.869722 0.000000
1.000000 0.869722 0.000000
1.000000 0.869722 0.000000
1.000000 0.869722 0.000000
1.000000 0.869722 0.000000
1.000000 0.869722 0.000000
1.000000 0.869722 0.000000
1.000000 0.869722 0.000000
0.025281 0.761414 0.000000
0.025281 0.761414 0.000000
0.025281 0.761414 0.000000
0.025281 0.761414 0.000000
0.028554 0.763162 0.000000
0.035473 0.766858 0.000000
0.044656 0.771594 0.000000
0.065760 0.782181 0.000000
0.089178 0.793933 0.000000
0.111839 0.806349 0.000000
0.134786 0.819849 0.000000
0.179967 0.835225 0.000000
0.258788 0.853659 0.000000
0.355531 0.872322 0.000000
0.463937 0.891609 0.000000
0.571023 0.910608 0.000000
0.675857 0.926854 0.000000
0.772595 0.938773 0.000000
0.855866 0.946617 0.000000
0.923605 0.951797 0.000000
0.959364 0.940935 0.000000
0.992702 0.929972 0.000000
1.000000 0.930164 0.000000
1.000000 0.930164 0.000000
1.000000 0.930164 0.000000
1.000000 0.930164 0.000000
1.000000 0.930164 0.000000
1.000000 0.930164 0.000000
1.000000 0.930164 0.000000
1.000000 0.930164 0.000000
1.000000 0.930164 0.000000
1.000000 0.930164 0.000000
1.000000 0.930164 0.000000
0.025711 0.774365 0.000000
0.025711 0.774365 0.000000
0.025711 0.774365 0.000000
0.025711 0.774365 0.000000
0.028984 0.776113 0.000000
0.035904 0.779810 0.000000
0.045086 0.784546 0.000000
0.066190 0.795133 0.000000
0.089608 0.806881 0.000000
0.112269 0.819293 0.000000
0.135216 0.832795 0.000000
0.180397 0.848176 0.000000
0.259218 0.866607 0.000000
0.355960 0.885266 0.000000
0.464363 0.904456 0.000000
0.571453 0.923554 0.000000
0.676287 0.939801 0.000000
0.773022 0.951630 0.000000
0.856296 0.959562 0.000000
0.924032 0.964638 0.000000
0.972315 0.966408 0.000000
0.992702 0.942923 0.000000
1.000000 0.943115 0.000000
1.000000 0.943115 0.000000
1.000000 0.943115 0.000000
1.000000 0.943115 0.000000
1.000000 0.943115 0.000000
1.000000 0.943115 0.000000
1.000000 0.943115 0.000000
1.000000 0.943115 0.000000
1.000000 0.943115 0.000000
1.000000 0.943115 0.000000
1.000000 0.943115 0.000000
0.025711 0.774365 0.000000
0.025711 0.774365 0.000000
0.025711 0.774365 0.000000
0.025711 0.774365 0.000000
0.028984 0.776113 0.000000
0.035904 0.779810 0.000000
0.045086 0.784546 0.000000
0.066190 0.795133 0.000000
0.089608 0.806881 0.000000
0.112269 0.819293 0.000000
0.135216 0.832795 0.000000
0.180397 0.848176 0.000000
0.259218 0.866607 0.000000
0.355960 0.885266 0.000000
0.464363 0.904456 0.000000
0.571453 0.923554 0.000000
0.676287 0.939801 0.000000
0.773022 0.951630 0.000000
0.856296 0.959562 0.000000
0.924032 0.964638 0.000000
0.972315 0.966408 0.000000
0.992702 0.942923 0.000000
1.000000 0.943115 0.000000
1.000000 0.943115 0.000000
1.000000 0.943115 0.000000
1.000000 0.943115 0.000000
1.000000 0.943115 0.000000
1.000000 0.943115 0.000000
1.000000 0.943115 0.000000
1.000000 0.943115 0.000000
1.000000 0.943115 0.000000
1.000000 0.943115 0.000000
1.000000 0.943115 0.000000
0.025711 0.774365 0.000000
0.025711 0.774365 0.000000
0.025711 0.774365 0.000000
0.025711 0.774365 0.000000
0.028984 0.776113 0.000000
0.035904 0.779810 0.000000
0.045086 0.784546 0.000000
0.066190 0.795133 0.000000
0.089608 0.806881 0.000000
0.112269 0.819293 0.000000
0.135216 0.832795 0.000000
0.180397 0.848176 0.000000
0.259218 0.866607 0.000000
0.355960 0.885266 0.000000
0.464363 0.904456 0.000000
0.571453 0.923554 0.000000
0.676287 0.939801 0.000000
0.773022 0.951630 0.000000
0.856296 0.959562 0.000000
0.924032 0.964638 0.000000
0.972315 0.966408 0.000000
0.992702 0.942923 0.000000
1.000000 0.943115 0.000000
1.000000 0.943115 0.000000
1.000000 0.943115 0.000000
1.000000 0.943115 0.000000
1.000000 0.943115 0.000000
1.000000 0.943115 0.000000
1.000000 0.943115 0.000000
1.000000 0.943115 0.000000
1.000000 0.943115 0.000000
1.000000 0.943115 0.000000
1.000000 0.943115 0.000000
0.025711 0.774365 0.000000
0.025711 0.774365 0.000000
0.025711 0.774365 0.000000
0.025711 0.774365 0.000000
0.028984 0.776113 0.000000
0.035904 0.779810 0.000000
0.045086 0.784546 0.000000
0.066190 0.795133 0.000000
0.089608 0.806881 0.000000
0.112269 0.819293 0.000000
0.135216 0.832795 0.000000
0.180397 0.848176 0.000000
0.259218 0.866607 0.000000
0.355960 0.885266 0.000000
0.464363 0.904456 0.000000
0.571453 0.923554 0.000000
0.676287 0.939801 0.000000
0.773022 0.951630 0.000000
0.856296 0.959562 0.000000
0.924032 0.964638 0.000000
0.972315 0.966408 0.000000
0.992702 0.942923 0.000000
1.000000 0.943115 0.000000
1.000000 0.943115 0.000000
