Assets/Fantasy Adventure Environment/PostProcessingAssets/FAE_LUT_v2.cube
#Created by: Adobe Photoshop Export Color Lookup Plugin
TITLE "Colorgrading v2.psd"
#LUT size
LUT_3D_SIZE 9
#data domain
DOMAIN_MIN 0.0 0.0 0.0
DOMAIN_MAX 1.0 1.0 1.0
#LUT data points
0.000000 0.000000 0.000000
0.003272 0.000000 0.000165
0.064268 0.000402 0.002566
0.187335 0.000049 0.003677
0.454670 0.000000 0.015096
0.738837 0.000000 0.024532
0.873259 0.000000 0.028995
0.873259 0.000000 0.028995
0.873259 0.000000 0.028995
0.000109 0.003272 0.000000
0.003272 0.003165 0.000056
0.064268 0.001555 0.000445
0.187730 0.000049 0.000362
0.455855 0.000000 0.011921
0.739852 0.000000 0.021350
0.874218 0.000000 0.025811
0.874218 0.000000 0.025811
0.874218 0.000000 0.025811
0.001537 0.064470 0.000000
0.005338 0.064526 0.000604
0.065274 0.063947 0.001049
0.195383 0.063006 0.000304
0.479035 0.046912 0.000000
0.760964 0.037551 0.000000
0.894912 0.033103 0.000000
0.894912 0.033103 0.000000
0.894912 0.033103 0.000000
0.002984 0.178144 0.000000
0.009037 0.178257 0.002931
0.068793 0.182759 0.003132
0.210210 0.193856 0.000388
0.529649 0.191251 0.000000
0.816426 0.163225 0.000000
0.950851 0.168542 0.000000
0.950850 0.168542 0.000000
0.950850 0.168542 0.000000
0.013155 0.396210 0.000000
0.016384 0.396605 0.000000
0.076362 0.407928 0.000000
0.206730 0.458489 0.000000
0.605778 0.497475 0.000000
0.905721 0.499397 0.000000
1.000000 0.503798 0.000000
1.000000 0.503798 0.000000
1.000000 0.503798 0.000000
0.021001 0.632497 0.000000
0.024257 0.633738 0.000000
0.084662 0.657925 0.000000
0.207074 0.722171 0.000000
0.665165 0.805527 0.000000
0.945815 0.804597 0.000000
1.000000 0.806983 0.000000
1.000000 0.806983 0.000000
1.000000 0.806983 0.000000
0.025711 0.774365 0.000000
0.028984 0.776113 0.000000
0.089608 0.806881 0.000000
0.259218 0.866607 0.000000
0.676287 0.939801 0.000000
0.972315 0.966408 0.000000
1.000000 0.943115 0.000000
1.000000 0.943115 0.000000
1.000000 0.943115 0.000000
0.025711 0.774365 0.000000
0.028984 0.776114 0.000000
0.089608 0.806880 0.000000
0.259218 0.866607 0.000000
0.676287 0.939801 0.000000
0.972315 0.966408 0.000000
1.000000 0.943115 0.000000
1.000000 0.943115 0.000000
1.000000 0.943115 0.000000
0.025711 0.774365 0.000000
0.028984 0.776114 0.000000
0.089608 0.806880 0.000000
0.259218 0.866607 0.000000
0.676287 0.939801 0.000000
0.972315 0.966408 0.000000
1.000000 0.943115 0.000000
1.000000 0.943115 0.000000
1.000000 0.943115 0.000000
0.000000 0.000109 0.003272
0.003163 0.000000 0.003272
0.064268 0.000402 0.005837
0.187504 0.002695 0.009400
0.455065 0.000000 0.018325
0.739175 0.000000 0.027758
0.873541 0.000000 0.032219
0.873541 0.000000 0.032219
0.873541 0.000000 0.032219
0.000000 0.003272 0.003163
0.003272 0.003273 0.003328
0.064268 0.003674 0.005729
0.187899 0.003320 0.006746
0.456249 0.003215 0.018257
0.740190 0.003215 0.027685
0.874556 0.003215 0.032146
0.874556 0.003215 0.032146
0.874556 0.003215 0.032146
0.000000 0.064470 0.001735
0.004534 0.064526 0.003215
0.065274 0.064055 0.004320
0.195552 0.063165 0.003575
0.479430 0.047005 0.003215
0.761358 0.037644 0.003215
0.895254 0.033199 0.003215
0.895254 0.033199 0.003215
0.895254 0.033199 0.003215
0.000000 0.178314 0.000339
0.005989 0.178426 0.003215
0.068690 0.182984 0.006460
0.210436 0.194239 0.003660
0.530100 0.191625 0.003215
0.816877 0.163768 0.003215
0.951302 0.169198 0.003215
0.951302 0.169198 0.003215
0.951302 0.169198 0.003215
0.009953 0.396605 0.000000
0.016292 0.397056 0.003215
0.076270 0.408379 0.003215
0.206531 0.459109 0.003215
0.606342 0.498297 0.003215
0.906228 0.500220 0.003215
1.000000 0.504694 0.003215
1.000000 0.504694 0.003215
1.000000 0.504694 0.003215
0.017799 0.632892 0.000000
0.024165 0.634189 0.003215
0.084569 0.658320 0.003215
0.206362 0.722623 0.003215
0.665415 0.806091 0.003215
0.945815 0.805437 0.003215
1.000000 0.807879 0.003215
1.000000 0.807879 0.003215
1.000000 0.807879 0.003215
0.022515 0.774929 0.000000
0.028896 0.776677 0.003215
0.089520 0.807445 0.003215
0.257838 0.867340 0.003215
0.676317 0.940534 0.003215
0.973161 0.968179 0.003215
1.000000 0.943955 0.003215
1.000000 0.943955 0.003215
1.000000 0.943955 0.003215
0.022515 0.774929 0.000000
0.028896 0.776677 0.003215
0.089520 0.807445 0.003215
0.257838 0.867340 0.003215
0.676317 0.940534 0.003215
0.973161 0.968179 0.003215
1.000000 0.943955 0.003215
1.000000 0.943955 0.003215
1.000000 0.943955 0.003215
0.022515 0.774929 0.000000
0.028896 0.776678 0.003215
0.089520 0.807445 0.003215
0.257838 0.867340 0.003215
0.676317 0.940534 0.003215
0.973161 0.968179 0.003215
1.000000 0.943955 0.003215
1.000000 0.943955 0.003215
1.000000 0.943955 0.003215
0.000000 0.002335 0.064268
0.001086 0.000201 0.064325
0.062135 0.000604 0.064872
0.189949 0.003035 0.070925
0.461383 0.000000 0.078136
0.745115 0.000000 0.087557
0.879308 0.000000 0.092013
0.879308 0.000000 0.092013
0.879308 0.000000 0.092013
0.000000 0.005609 0.064325
0.003215 0.005504 0.064381
0.062241 0.003875 0.064928
0.190343 0.006420 0.070826
0.462568 0.003215 0.078069
0.746186 0.003215 0.087486
0.880379 0.003215 0.091942
0.880379 0.003215 0.091942
0.880379 0.003215 0.091942
0.000000 0.065476 0.063905
0.003215 0.065532 0.064066
0.064470 0.065933 0.066122
0.198192 0.066123 0.065578
0.486364 0.062817 0.076880
0.768062 0.062817 0.086233
0.901822 0.062817 0.090675
0.901822 0.062817 0.090675
0.901822 0.062817 0.090675
0.000000 0.181155 0.063767
0.003215 0.181324 0.063924
0.062817 0.186177 0.066284
0.213008 0.200838 0.067488
0.537998 0.199200 0.062817
0.824775 0.173445 0.062817
0.959401 0.179537 0.062817
0.959401 0.179537 0.062817
0.959401 0.179537 0.062817
0.000000 0.404533 0.049788
0.003215 0.404984 0.049823
0.074574 0.416897 0.062817
0.197407 0.470263 0.062817
0.614833 0.512845 0.062817
0.914975 0.514971 0.062817
1.000000 0.520115 0.062817
1.000000 0.520115 0.062817
1.000000 0.520115 0.062817
0.000000 0.641047 0.046763
0.003215 0.642344 0.046263
0.082666 0.666688 0.062817
0.180483 0.732297 0.062817
0.667300 0.817197 0.062817
0.945908 0.821492 0.062817
1.000000 0.823738 0.062817
1.000000 0.823738 0.062817
1.000000 0.823738 0.062817
0.000000 0.784250 0.079442
0.003215 0.786055 0.079150
0.062817 0.817571 0.073179
0.221332 0.881617 0.065829
0.674684 0.954845 0.062817
0.976673 0.988451 0.062817
1.000000 0.960244 0.062817
1.000000 0.960244 0.062817
1.000000 0.960244 0.062817
0.000000 0.784250 0.079442
0.003215 0.786055 0.079150
0.062817 0.817571 0.073179
0.221332 0.881617 0.065829
0.674684 0.954845 0.062817
0.976673 0.988451 0.062817
1.000000 0.960244 0.062817
1.000000 0.960244 0.062817
1.000000 0.960244 0.062817
0.000000 0.784250 0.079442
0.003215 0.786055 0.079150
0.062817 0.817571 0.073179
0.221332 0.881617 0.065829
0.674684 0.954845 0.062817
0.976673 0.988451 0.062817
1.000000 0.960244 0.062817
1.000000 0.960244 0.062817
1.000000 0.960244 0.062817
0.000000 0.006142 0.183521
0.000049 0.002977 0.183634
0.057677 0.000255 0.185548
0.185258 0.002100 0.191294
0.468728 0.000000 0.203477
0.754565 0.000000 0.202477
0.888791 0.000000 0.210064
0.888791 0.000000 0.210064
0.888791 0.000000 0.210064
0.000000 0.009367 0.183803
0.003215 0.009263 0.183916
0.057721 0.003583 0.185830
0.185754 0.005485 0.191632
0.470026 0.003215 0.203695
0.755693 0.003215 0.202746
0.889863 0.003215 0.210274
0.889863 0.003215 0.210274
0.889863 0.003215 0.210274
0.000000 0.071228 0.189956
0.003215 0.071123 0.190012
0.062840 0.070807 0.191988
0.195954 0.071369 0.198940
0.494545 0.062817 0.208947
0.778165 0.062817 0.208608
0.912142 0.062817 0.216578
0.912142 0.062817 0.216578
0.912142 0.062817 0.216578
0.000000 0.194351 0.206931
0.003215 0.194415 0.206987
0.062817 0.197020 0.209360
0.207816 0.215317 0.216033
0.545489 0.216793 0.209268
0.834934 0.199722 0.204762
0.969226 0.203047 0.206176
0.969226 0.203047 0.206176
0.969226 0.203047 0.206176
0.000000 0.419352 0.214803
0.003215 0.419804 0.215007
0.062817 0.431936 0.218625
0.155308 0.488608 0.219090
0.617217 0.542452 0.193463
0.921880 0.543901 0.165687
1.000000 0.550124 0.169599
1.000000 0.550124 0.169599
1.000000 0.550124 0.169599
0.000000 0.657086 0.245358
0.003215 0.658384 0.245647
0.062817 0.682749 0.250395
0.155308 0.749775 0.249655
0.653675 0.844650 0.235530
0.945939 0.852837 0.207351
1.000000 0.854574 0.213231
1.000000 0.854574 0.213231
1.000000 0.854574 0.213231
0.000000 0.799228 0.273942
0.003215 0.800976 0.274385
0.062817 0.832164 0.281579
0.155308 0.898277 0.285930
0.656927 0.980205 0.291455
0.970222 0.999954 0.268626
1.000000 0.975830 0.272062
1.000000 0.975830 0.272062
1.000000 0.975830 0.272062
0.000000 0.799228 0.273942
0.003215 0.800976 0.274385
0.062817 0.832164 0.281579
0.155308 0.898277 0.285930
0.656927 0.980205 0.291455
0.970222 0.999954 0.268626
1.000000 0.975830 0.272062
1.000000 0.975830 0.272062
1.000000 0.975830 0.272062
0.000000 0.799228 0.273942
0.003215 0.800976 0.274385
0.062817 0.832164 0.281579
0.155308 0.898277 0.285930
0.656927 0.980205 0.291455
0.970222 0.999954 0.268626
1.000000 0.975830 0.272062
1.000000 0.975830 0.272062
1.000000 0.975830 0.272062
0.000000 0.013272 0.399715
0.000000 0.010062 0.399884
0.049408 0.000000 0.403842
0.168971 0.000000 0.419251
0.474643 0.000000 0.452802
0.762096 0.000000 0.468535
0.896030 0.000000 0.476289
0.896030 0.000000 0.476289
0.896030 0.000000 0.476289
0.000000 0.016507 0.400335
0.003215 0.016405 0.400448
0.049495 0.003215 0.404463
0.169732 0.003215 0.419928
0.475997 0.003215 0.453473
0.763284 0.003215 0.469200
0.897218 0.003215 0.477068
0.897218 0.003215 0.477068
0.897218 0.003215 0.477068
0.000000 0.076537 0.413214
0.003215 0.076436 0.413383
0.062817 0.074608 0.417927
0.184470 0.062817 0.434996
0.501941 0.062817 0.468426
0.787145 0.062817 0.483682
0.921264 0.062817 0.492685
0.921264 0.062817 0.492685
0.921264 0.062817 0.492685
0.000000 0.206054 0.447463
0.003215 0.206068 0.447689
0.062817 0.208786 0.453409
0.189776 0.235288 0.473251
0.553287 0.235526 0.504417
0.844145 0.225554 0.519285
0.978265 0.237045 0.528386
0.978265 0.237045 0.528386
0.978265 0.237045 0.528386
0.000000 0.456468 0.495908
0.003215 0.456821 0.496190
0.062817 0.467396 0.503366
0.155308 0.521700 0.523839
0.607100 0.585271 0.542758
0.919547 0.587227 0.543815
1.000000 0.593234 0.546421
1.000000 0.593234 0.546421
1.000000 0.593234 0.546421
0.000000 0.677446 0.508937
0.003215 0.678687 0.509567
0.062817 0.702871 0.521231
0.155308 0.769601 0.540461
0.621805 0.874838 0.577762
0.945504 0.889829 0.576530
1.000000 0.890456 0.577629
1.000000 0.890456 0.577629
1.000000 0.890456 0.577629
0.000000 0.816876 0.521723
0.003215 0.818624 0.522505
0.062817 0.849807 0.535735
0.155308 0.915609 0.553793
0.628472 0.998294 0.595221
0.957919 1.000000 0.595069
1.000000 0.986575 0.595659
1.000000 0.986575 0.595659
1.000000 0.986575 0.595659
0.000000 0.816876 0.521723
0.003215 0.818624 0.522505
0.062817 0.849807 0.535735
0.155308 0.915609 0.553793
0.628472 0.998294 0.595221
0.957919 1.000000 0.595069
1.000000 0.986575 0.595659
1.000000 0.986575 0.595659
1.000000 0.986575 0.595659
0.000000 0.816876 0.521723
0.003215 0.818624 0.522505
0.062817 0.849807 0.535735
0.155308 0.915609 0.553793
0.628472 0.998294 0.595221
0.957919 1.000000 0.595069
1.000000 0.986575 0.595659
1.000000 0.986575 0.595659
1.000000 0.986575 0.595659
0.000000 0.021489 0.647189
0.000000 0.018279 0.647358
0.041151 0.000000 0.652549
0.151543 0.000000 0.673412
0.465750 0.000000 0.703456
0.779585 0.000000 0.741903
0.913748 0.000000 0.749868
0.913749 0.000000 0.749868
0.913749 0.000000 0.749868
0.000000 0.024741 0.648317
0.003215 0.024642 0.648543
0.041218 0.003215 0.653733
0.153073 0.003215 0.674709
0.467505 0.003215 0.704866
0.781165 0.003215 0.743202
0.915384 0.003215 0.751226
0.915384 0.003215 0.751226
0.915384 0.003215 0.751226
0.000000 0.085015 0.668538
0.003215 0.084915 0.668764
0.062817 0.083149 0.675148
0.177468 0.062817 0.697870
0.497740 0.062817 0.729663
0.809542 0.062817 0.766155
0.944538 0.062817 0.775012
0.944538 0.062817 0.775012
0.944538 0.062817 0.775012
0.000000 0.221984 0.704483
0.003215 0.222056 0.704765
0.062817 0.226262 0.712082
0.167252 0.260299 0.737531
0.543823 0.255696 0.771859
0.858353 0.245192 0.803002
0.992511 0.260711 0.811328
0.992511 0.260711 0.811328
0.992511 0.260711 0.811328
0.000000 0.473735 0.755454
0.003215 0.474149 0.755849
0.062817 0.484938 0.764594
0.155308 0.537794 0.791374
0.595077 0.606406 0.828045
0.918153 0.610388 0.847051
1.000000 0.618765 0.850905
1.000000 0.618765 0.850905
1.000000 0.618765 0.850905
0.000000 0.712089 0.777550
0.003215 0.713244 0.778170
0.062817 0.735659 0.790078
0.155308 0.797932 0.814142
0.592534 0.885894 0.837161
0.940607 0.911755 0.855660
1.000000 0.910594 0.855675
1.000000 0.910594 0.855675
1.000000 0.910594 0.855675
0.000000 0.825329 0.757168
0.003215 0.827078 0.758006
0.062817 0.857238 0.772275
0.155308 0.920501 0.794742
0.597580 0.999796 0.835008
0.945041 1.000000 0.857264
1.000000 0.995261 0.857280
1.000000 0.995261 0.857280
1.000000 0.995261 0.857280
0.000000 0.825329 0.757168
0.003215 0.827078 0.758006
0.062817 0.857238 0.772275
0.155308 0.920501 0.794742
0.597580 0.999796 0.835008
0.945041 1.000000 0.857264
1.000000 0.995261 0.857280
1.000000 0.995261 0.857280
1.000000 0.995261 0.857280
0.000000 0.825329 0.757168
0.003215 0.827078 0.758006
0.062817 0.857238 0.772275
0.155308 0.920501 0.794742
0.597580 0.999796 0.835008
0.945041 1.000000 0.857264
1.000000 0.995261 0.857280
1.000000 0.995261 0.857280
1.000000 0.995261 0.857280
0.000000 0.026384 0.794629
0.000000 0.023178 0.794911
0.036205 0.000000 0.801483
0.169806 0.000000 0.824430
0.488826 0.000000 0.856356
0.779061 0.000000 0.869442
0.943587 0.000000 0.905565
0.943587 0.000000 0.905565
0.943587 0.000000 0.905565
0.000000 0.029635 0.795701
0.003215 0.029538 0.795983
0.036273 0.003215 0.802667
0.171509 0.003215 0.825615
0.490471 0.003215 0.857597
0.780706 0.003215 0.870683
0.945223 0.003215 0.906754
0.945223 0.003215 0.906754
0.945223 0.003215 0.906754
0.000000 0.096489 0.814155
0.003215 0.096619 0.814494
0.062817 0.101705 0.822015
0.174062 0.103542 0.846050
0.516729 0.100854 0.879457
0.809728 0.067243 0.891914
0.971805 0.096026 0.925597
0.971805 0.096026 0.925597
0.971805 0.096026 0.925597
0.000000 0.251146 0.843293
0.003215 0.251389 0.843631
0.062817 0.257791 0.852185
0.155308 0.295322 0.877935
0.548073 0.298899 0.913151
0.849690 0.296703 0.924245
0.998204 0.312013 0.950716
0.998204 0.312013 0.950716
0.998204 0.312013 0.950716
0.000000 0.483814 0.885978
0.003215 0.484343 0.886429
0.062817 0.496741 0.895953
0.155308 0.550442 0.922678
0.593341 0.619420 0.958884
0.907840 0.619407 0.968466
1.000000 0.627231 0.981983
1.000000 0.627231 0.981983
1.000000 0.627231 0.981983
0.000000 0.717853 0.906094
0.003215 0.719122 0.906771
0.062817 0.742737 0.919269
0.155308 0.804127 0.942993
0.589598 0.898511 0.975736
0.937473 0.914836 0.985305
1.000000 0.915157 0.987878
1.000000 0.915157 0.987878
1.000000 0.915157 0.987878
0.000000 0.858410 0.913558
0.003215 0.860079 0.914291
0.062817 0.888717 0.927596
0.155308 0.948239 0.948630
0.594490 0.999771 0.963395
0.939034 1.000000 0.983800
1.000000 0.999538 0.986084
1.000000 0.999538 0.986084
1.000000 0.999538 0.986084
0.000000 0.858410 0.913558
0.003215 0.860079 0.914291
0.062817 0.888717 0.927596
0.155308 0.948239 0.948630
0.594490 0.999771 0.963395
0.939034 1.000000 0.983800
1.000000 0.999538 0.986084
1.000000 0.999538 0.986084
1.000000 0.999538 0.986084
0.000000 0.858410 0.913558
0.003215 0.860079 0.914291
0.062817 0.888717 0.927596
0.155308 0.948239 0.948630
0.594490 0.999771 0.963395
0.939034 1.000000 0.983800
1.000000 0.999538 0.986084
1.000000 0.999538 0.986084
1.000000 0.999538 0.986084
0.000000 0.026384 0.794629
0.000000 0.023178 0.794911
0.036205 0.000000 0.801483
0.169806 0.000000 0.824430
0.488826 0.000000 0.856356
0.779061 0.000000 0.869442
0.943587 0.000000 0.905565
0.943587 0.000000 0.905565
0.943587 0.000000 0.905565
0.000000 0.029635 0.795701
0.003215 0.029538 0.795983
0.036273 0.003215 0.802667
0.171509 0.003215 0.825615
0.490471 0.003215 0.857597
0.780706 0.003215 0.870682
0.945223 0.003215 0.906754
0.945223 0.003215 0.906754
0.945223 0.003215 0.906754
0.000000 0.096489 0.814155
0.003215 0.096619 0.814494
0.062817 0.101705 0.822015
0.174062 0.103542 0.846051
0.516729 0.100854 0.879457
0.809728 0.067243 0.891914
0.971805 0.096026 0.925597
0.971805 0.096026 0.925597
0.971805 0.096026 0.925597
0.000000 0.251146 0.843293
0.003215 0.251389 0.843632
0.062817 0.257791 0.852185
0.155308 0.295322 0.877935
0.548073 0.298899 0.913151
0.849690 0.296703 0.924245
0.998204 0.312013 0.950716
0.998204 0.312013 0.950716
0.998204 0.312013 0.950716
0.000000 0.483815 0.885978
0.003215 0.484343 0.886429
0.062817 0.496741 0.895953
0.155308 0.550442 0.922678
0.593341 0.619420 0.958884
0.907840 0.619407 0.968466
1.000000 0.627231 0.981983
1.000000 0.627231 0.981983
1.000000 0.627231 0.981983
0.000000 0.717853 0.906094
0.003215 0.719122 0.906771
0.062817 0.742737 0.919269
0.155308 0.804127 0.942993
0.589598 0.898511 0.975736
0.937473 0.914835 0.985305
1.000000 0.915157 0.987878
1.000000 0.915157 0.987878
1.000000 0.915157 0.987878
0.000000 0.858410 0.913558
0.003215 0.860079 0.914291
0.062817 0.888717 0.927596
0.155308 0.948239 0.948630
0.594490 0.999771 0.963395
0.939034 1.000000 0.983800
1.000000 0.999538 0.986084
1.000000 0.999538 0.986084
1.000000 0.999538 0.986084
0.000000 0.858410 0.913558
0.003215 0.860079 0.914291
0.062817 0.888717 0.927596
0.155308 0.948239 0.948630
0.594490 0.999771 0.963395
0.939034 1.000000 0.983800
1.000000 0.999538 0.986084
1.000000 0.999538 0.986084
1.000000 0.999538 0.986084
0.000000 0.858410 0.913558
0.003215 0.860079 0.914291
0.062817 0.888717 0.927596
0.155308 0.948239 0.948630
0.594490 0.999771 0.963395
0.939034 1.000000 0.983800
1.000000 0.999538 0.986084
1.000000 0.999538 0.986084
1.000000 0.999538 0.986084
0.000000 0.026384 0.794629
0.000000 0.023178 0.794911
0.036205 0.000000 0.801483
0.169806 0.000000 0.824430
0.488826 0.000000 0.856356
0.779061 0.000000 0.869442
0.943587 0.000000 0.905565
0.943587 0.000000 0.905565
0.943587 0.000000 0.905565
0.000000 0.029635 0.795701
0.003215 0.029538 0.795983
0.036273 0.003215 0.802667
0.171509 0.003215 0.825615
0.490471 0.003215 0.857597
0.780706 0.003215 0.870682
0.945223 0.003215 0.906754
0.945223 0.003215 0.906754
0.945223 0.003215 0.906754
0.000000 0.096489 0.814155
0.003215 0.096619 0.814494
0.062817 0.101705 0.822015
0.174062 0.103542 0.846051
0.516729 0.100854 0.879457
0.809728 0.067243 0.891914
0.971805 0.096026 0.925597
0.971805 0.096026 0.925597
0.971805 0.096026 0.925597
0.000000 0.251146 0.843293
0.003215 0.251389 0.843632
0.062817 0.257791 0.852185
0.155308 0.295322 0.877935
0.548073 0.298899 0.913151
0.849690 0.296703 0.924245
0.998204 0.312013 0.950716
0.998204 0.312013 0.950716
0.998204 0.312013 0.950716
0.000000 0.483815 0.885978
0.003215 0.484343 0.886429
0.062817 0.496741 0.895953
0.155308 0.550442 0.922678
0.593341 0.619420 0.958884
0.907840 0.619407 0.968466
1.000000 0.627231 0.981983
1.000000 0.627231 0.981983
1.000000 0.627231 0.981983
0.000000 0.717853 0.906094
0.003215 0.719122 0.906771
0.062817 0.742737 0.919269
0.155308 0.804127 0.942993
0.589598 0.898511 0.975736
0.937473 0.914835 0.985305
1.000000 0.915157 0.987878
1.000000 0.915157 0.987878
1.000000 0.915157 0.987878
0.000000 0.858410 0.913558
0.003215 0.860079 0.914291
0.062817 0.888717 0.927596
0.155308 0.948239 0.948630
0.594490 0.999771 0.963395
0.939034 1.000000 0.983800
1.000000 0.999538 0.986084
1.000000 0.999538 0.986084
1.000000 0.999538 0.986084
0.000000 0.858410 0.913558
0.003215 0.860079 0.914291
0.062817 0.888717 0.927596
0.155308 0.948239 0.948630
0.594490 0.999771 0.963395
0.939034 1.000000 0.983800
1.000000 0.999538 0.986084
1.000000 0.999538 0.986084
1.000000 0.999538 0.986084
0.000000 0.858410 0.913558
0.003215 0.860079 0.914291
0.062817 0.888717 0.927596
0.155308 0.948239 0.948630
0.594490 0.999771 0.963395
0.939034 1.000000 0.983800
1.000000 0.999538 0.986084
1.000000 0.999538 0.986084
1.000000 0.999538 0.986084
